humanity-icon-theme/Humanity/apps/48/baobab.svg

<?xml version="1.0" encoding="UTF-8" standalone="no"?>
<!-- Created with Inkscape (http://www.inkscape.org/) -->

<svg
   xmlns:svg="http://www.w3.org/2000/svg"
   xmlns="http://www.w3.org/2000/svg"
   xmlns:xlink="http://www.w3.org/1999/xlink"
   version="1.1"
   width="48"
   height="48"
   id="svg2471">
  <defs
     id="defs2473">
    <linearGradient
       id="linearGradient6297">
      <stop
         id="stop6299"
         style="stop-color:#d87468;stop-opacity:1"
         offset="0" />
      <stop
         id="stop6281"
         style="stop-color:#8f3025;stop-opacity:1"
         offset="1" />
    </linearGradient>
    <linearGradient
       id="linearGradient6687">
      <stop
         id="stop6689"
         style="stop-color:white;stop-opacity:1"
         offset="0" />
      <stop
         id="stop6691"
         style="stop-color:white;stop-opacity:0"
         offset="1" />
    </linearGradient>
    <linearGradient
       id="linearGradient6719">
      <stop
         id="stop6721"
         style="stop-color:#8cab2a;stop-opacity:1"
         offset="0" />
      <stop
         id="stop6723"
         style="stop-color:#d7e866;stop-opacity:1"
         offset="1" />
    </linearGradient>
    <linearGradient
       id="linearGradient6711">
      <stop
         id="stop6713"
         style="stop-color:#8badea;stop-opacity:1"
         offset="0" />
      <stop
         id="stop6715"
         style="stop-color:#3b7caf;stop-opacity:1"
         offset="1" />
    </linearGradient>
    <linearGradient
       id="linearGradient6699">
      <stop
         id="stop6701"
         style="stop-color:#f8b17e;stop-opacity:1"
         offset="0" />
      <stop
         id="stop6295"
         style="stop-color:#c6262e;stop-opacity:1"
         offset="1" />
    </linearGradient>
    <linearGradient
       id="linearGradient2456">
      <stop
         id="stop2458"
         style="stop-color:black;stop-opacity:1"
         offset="0" />
      <stop
         id="stop2460"
         style="stop-color:black;stop-opacity:0"
         offset="1" />
    </linearGradient>
    <linearGradient
       x1="-20.75"
       y1="29"
       x2="-19.5"
       y2="18.75"
       id="linearGradient6313"
       xlink:href="#linearGradient6687"
       gradientUnits="userSpaceOnUse"
       gradientTransform="matrix(1.6595755,0,0,1.9354855,54.909593,-20.677459)" />
    <linearGradient
       x1="-20.75"
       y1="29"
       x2="-19.5"
       y2="18.75"
       id="linearGradient6316"
       xlink:href="#linearGradient6687"
       gradientUnits="userSpaceOnUse"
       gradientTransform="matrix(1.6595737,0,0,2.0645149,54.90956,-27.82255)" />
    <linearGradient
       x1="-15.059621"
       y1="33.7365"
       x2="-19.19733"
       y2="26.484671"
       id="linearGradient6319"
       xlink:href="#linearGradient6719"
       gradientUnits="userSpaceOnUse"
       gradientTransform="matrix(1.6710242,0,0,2.2484561,55.349573,-33.953426)" />
    <linearGradient
       x1="-15.861224"
       y1="25.283489"
       x2="-11.915193"
       y2="30.298059"
       id="linearGradient6323"
       xlink:href="#linearGradient6711"
       gradientUnits="userSpaceOnUse"
       gradientTransform="matrix(1.662906,0,0,2.2591945,54.992262,-34.153097)" />
    <linearGradient
       x1="-25.286484"
       y1="17.743382"
       x2="-16.964699"
       y2="32.402924"
       id="linearGradient6327"
       xlink:href="#linearGradient6699"
       gradientUnits="userSpaceOnUse"
       gradientTransform="matrix(1.6629504,0,0,2.075635,54.992555,-28.256639)" />
    <radialGradient
       cx="28.283663"
       cy="47.400623"
       r="13.804391"
       fx="28.283663"
       fy="47.400623"
       id="radialGradient6331"
       xlink:href="#linearGradient2456"
       gradientUnits="userSpaceOnUse"
       gradientTransform="matrix(1.7385775,0,0,1.2826837,-25.173331,-32.506666)" />
    <linearGradient
       x1="8.8128157"
       y1="5.939332"
       x2="19.72506"
       y2="29.856796"
       id="linearGradient6334"
       xlink:href="#linearGradient6297"
       gradientUnits="userSpaceOnUse" />
  </defs>
  <path
     d="M 24,5 C 16.353012,4.9500582 8.2859562,8.6425339 4.65625,15.625 3.0140758,18.544094 2.9268123,21.930117 3,25.1875 c -0.2402835,3.840995 1.0183786,7.728682 3.625,10.59375 3.453752,3.882508 8.28723,6.170747 13.375,6.9375 l 0,-21.625 24.9375,0 C 44.361407,14.538246 39.255206,9.1758449 33.3125,6.8125 30.372331,5.6018847 27.176783,4.9989774 24,5 z"
     id="path6298"
     style="fill:url(#linearGradient6334);fill-opacity:1;fill-rule:nonzero;stroke:none" />
  <path
     d="m 47.999998,28.293335 c 0,9.779121 -10.745165,17.706666 -23.999999,17.706666 C 10.745164,46.000001 -1.0019047e-6,38.072456 -1.0019047e-6,28.293335 -1.0019047e-6,18.514213 10.745164,10.586668 23.999999,10.586668 c 13.254834,0 23.999999,7.927545 23.999999,17.706667 l 0,0 z"
     id="path1693"
     style="fill:url(#radialGradient6331);fill-opacity:1;fill-rule:evenodd;stroke:none" />
  <path
     d="M 43.311283,22.465214 C 41.018766,15.861998 33.245349,11 24.000535,11 14.755719,11 6.982302,15.861998 4.6897835,22.465214 L 4,22.465214 4,26.501315 C 4,35.061431 12.955447,42 24.000535,42 35.046688,42 44,35.061431 44,26.501315 l 0,-4.036101 -0.688717,0 0,0 z"
     id="path3933"
     style="fill:#a40000;fill-rule:nonzero;stroke:none" />
  <path
     d="M 44,22.500002 C 44,31.613778 35.046688,39 24.000534,39 12.95438,39 4,31.613778 4,22.500002 4,13.386222 12.955446,6.0000001 24.000534,6.0000001 35.046688,6.0000001 44,13.386222 44,22.500002 l 0,0 z"
     id="path3935"
     style="fill:url(#linearGradient6327);fill-opacity:1;fill-rule:nonzero;stroke:none" />
  <path
     d="m 30.90625,21.09375 0,21 c 5.870387,-1.598439 11.43031,-5.490767 13.4375,-11.40625 0.97695,-2.955978 0.601164,-6.097656 0.625,-9.15625 -0.0083,-0.147341 -0.0184,-0.291315 -0.03125,-0.4375 l -14.03125,0 z"
     id="path6338"
     style="fill:#1e3f5a;fill-opacity:1;fill-rule:nonzero;stroke:none" />
  <path
     d="m 44,27 -0.02711,-4.352722 c -2.29432,9.042878 -7.45343,12.873871 -13.939878,14.749391 l 0,3.903331 C 37,39.620896 43.601955,34.458796 44,27 l 0,0 z"
     id="path3937"
     style="fill:#2d5f87;fill-opacity:1;fill-rule:nonzero;stroke:none" />
  <path
     d="M 44,21.092223 C 44.711363,33.370463 32.600354,37.713038 30.760985,38 L 24,21.006285 l 19.998932,0.08594 0.0011,0 z"
     id="path3939"
     style="fill:url(#linearGradient6323);fill-opacity:1;fill-rule:nonzero;stroke:none" />
  <path
     d="m 20,41 0,1.71875 c 3.066032,0.466749 6.217746,0.378521 9.21875,-0.21875 0.562485,-0.11014 1.128083,-0.254251 1.6875,-0.40625 L 30.90625,41 20,41 z"
     id="path6346"
     style="fill:#486725;fill-opacity:1;fill-rule:nonzero;stroke:none" />
  <path
     d="m 20,38.347388 c 3.737802,0.469206 7.167032,0.551881 10.8709,-0.340363 L 30.908012,41.1 C 27.804314,42.081359 23,42.232079 20,41.7 l 0,-3.352612 z"
     id="path3941"
     style="fill:#699536;fill-opacity:1;fill-rule:nonzero;stroke:none" />
  <path
     d="m 24,21 6.9,17 C 26,39.583736 21,39 20,38.612 L 24,21 z"
     id="path3943"
     style="fill:url(#linearGradient6319);fill-opacity:1;fill-rule:nonzero;stroke:none" />
  <path
     d="m 43.499991,22.500001 c 0,8.836551 -8.730443,15.99999 -19.499991,15.99999 -10.769548,0 -19.4999911,-7.163439 -19.4999911,-15.99999 C 4.5000089,13.66345 13.230452,6.5000102 24,6.5000102 c 10.769548,0 19.499991,7.1634398 19.499991,15.9999908 l 0,0 z"
     id="path5959"
     style="opacity:0.31111115;fill:none;stroke:url(#linearGradient6316);stroke-width:1.00001836;stroke-linecap:butt;stroke-linejoin:miter;stroke-miterlimit:4;stroke-opacity:1;stroke-dasharray:none;stroke-dashoffset:0;marker:none;visibility:visible;display:block;overflow:visible" />
  <path
     d="m 43.500011,26.5 c 0,8.284279 -8.730452,15.000013 -19.500012,15.000013 -10.769559,0 -19.5000118,-6.715734 -19.5000118,-15.000013 0,-8.284279 8.7304528,-15.000013 19.5000118,-15.000013 10.76956,0 19.500012,6.715734 19.500012,15.000013 l 0,0 z"
     id="path6707"
     style="opacity:0.13333327;fill:none;stroke:url(#linearGradient6313);stroke-width:0.99997467;stroke-linecap:butt;stroke-linejoin:miter;stroke-miterlimit:4;stroke-opacity:1;stroke-dasharray:none;stroke-dashoffset:0;marker:none;visibility:visible;display:block;overflow:visible" />
</svg>

<?xml version="1.0" encoding="UTF-8" standalone="no"?>
<!-- Created with Inkscape (http://www.inkscape.org/) -->
<svg id="svg2471" xmlns="http://www.w3.org/2000/svg" height="48" width="48" version="1.1" xmlns:xlink="http://www.w3.org/1999/xlink">
 <defs id="defs2473">
  <linearGradient id="linearGradient6687">
   <stop id="stop6689" style="stop-color:#fff" offset="0"/>
   <stop id="stop6691" style="stop-color:#fff;stop-opacity:0" offset="1"/>
  </linearGradient>
  <linearGradient id="linearGradient6313" y2="18.75" xlink:href="#linearGradient6687" gradientUnits="userSpaceOnUse" x2="-19.5" gradientTransform="matrix(1.6596 0 0 1.9355 54.91 -20.677)" y1="29" x1="-20.75"/>
  <linearGradient id="linearGradient6316" y2="18.75" xlink:href="#linearGradient6687" gradientUnits="userSpaceOnUse" x2="-19.5" gradientTransform="matrix(1.6596 0 0 2.0645 54.91 -27.823)" y1="29" x1="-20.75"/>
  <linearGradient id="linearGradient6319" y2="26.485" gradientUnits="userSpaceOnUse" x2="-19.197" gradientTransform="matrix(1.671 0 0 2.2485 55.35 -33.953)" y1="33.736" x1="-15.06">
   <stop id="stop6721" style="stop-color:#8cab2a" offset="0"/>
   <stop id="stop6723" style="stop-color:#d7e866" offset="1"/>
  </linearGradient>
  <linearGradient id="linearGradient6323" y2="30.298" gradientUnits="userSpaceOnUse" x2="-11.915" gradientTransform="matrix(1.6629 0 0 2.2592 54.992 -34.153)" y1="25.283" x1="-15.861">
   <stop id="stop6713" style="stop-color:#8badea" offset="0"/>
   <stop id="stop6715" style="stop-color:#3b7caf" offset="1"/>
  </linearGradient>
  <linearGradient id="linearGradient6327" y2="32.403" gradientUnits="userSpaceOnUse" x2="-16.965" gradientTransform="matrix(1.663 0 0 2.0756 54.993 -28.257)" y1="17.743" x1="-25.286">
   <stop id="stop6701" style="stop-color:#f8b17e" offset="0"/>
   <stop id="stop6295" style="stop-color:#c6262e" offset="1"/>
  </linearGradient>
  <radialGradient id="radialGradient6331" gradientUnits="userSpaceOnUse" cy="47.401" cx="28.284" gradientTransform="matrix(1.7386 0 0 1.2827 -25.173 -32.507)" r="13.804">
   <stop id="stop2458" offset="0"/>
   <stop id="stop2460" style="stop-opacity:0" offset="1"/>
  </radialGradient>
  <linearGradient id="linearGradient6334" y2="29.857" gradientUnits="userSpaceOnUse" x2="19.725" y1="5.9393" x1="8.8128">
   <stop id="stop6299" style="stop-color:#d87468" offset="0"/>
   <stop id="stop6281" style="stop-color:#8f3025" offset="1"/>
  </linearGradient>
 </defs>
 <path id="path6298" style="fill:url(#linearGradient6334)" d="m24 5c-7.647-0.0499-15.714 3.6425-19.344 10.625-1.6419 2.919-1.7292 6.305-1.656 9.563-0.24028 3.841 1.0184 7.7287 3.625 10.594 3.4538 3.8825 8.2872 6.1707 13.375 6.9375v-21.625h24.938c-0.577-6.557-5.683-11.919-11.626-14.282-2.94-1.2111-6.135-1.814-9.312-1.813z"/>
 <path id="path1693" style="fill:url(#radialGradient6331);fill-rule:evenodd" d="m48 28.293c0 9.7791-10.745 17.707-24 17.707s-24-7.928-24-17.707c-0.0000010019-9.779 10.745-17.706 24-17.706s24 7.9275 24 17.707z"/>
 <path id="path3933" style="fill:#a40000" d="m43.311 22.465c-2.292-6.603-10.066-11.465-19.31-11.465-9.245 0-17.019 4.862-19.311 11.465h-0.69v4.036c0 8.56 8.955 15.499 20.001 15.499s19.999-6.939 19.999-15.499v-4.0361h-0.68872z"/>
 <path id="path3935" style="fill:url(#linearGradient6327)" d="m44 22.5c0 9.114-8.953 16.5-19.999 16.5-11.047 0-20.001-7.386-20.001-16.5s8.955-16.5 20.001-16.5 19.999 7.386 19.999 16.5z"/>
 <path id="path6338" style="fill:#1e3f5a" d="m30.906 21.094v21c5.8704-1.5984 11.43-5.4908 13.438-11.406 0.97695-2.956 0.60116-6.0977 0.625-9.1562-0.0083-0.14734-0.0184-0.29132-0.03125-0.4375h-14.031z"/>
 <path id="path3937" style="fill:#2d5f87" d="m44 27-0.02711-4.3527c-2.2943 9.0429-7.4534 12.874-13.94 14.749v3.9033c6.967-1.678 13.569-6.84 13.967-14.299z"/>
 <path id="path3939" style="fill:url(#linearGradient6323)" d="m44 21.092c0.711 12.278-11.4 16.621-13.239 16.908l-6.761-16.994 19.999 0.08594h0.0011z"/>
 <path id="path6346" style="fill:#486725" d="m20 41v1.7188c3.066 0.46675 6.2177 0.37852 9.2188-0.21875 0.56248-0.11014 1.1281-0.25425 1.6875-0.40625v-1.094h-10.906z"/>
 <path id="path3941" style="fill:#699536" d="m20 38.347c3.7378 0.46921 7.167 0.55188 10.871-0.34036l0.037 3.093c-3.104 0.981-7.908 1.132-10.908 0.6v-3.3526z"/>
 <path id="path3943" style="fill:url(#linearGradient6319)" d="m24 21 6.9 17c-4.9 1.584-9.9 1-10.9 0.612l4-17.612z"/>
 <path id="path5959" style="opacity:.31111;stroke:url(#linearGradient6316);display:block;fill:none" d="m43.5 22.5c0 8.8366-8.7304 16-19.5 16s-19.5-7.1634-19.5-16c0-8.837 8.73-16 19.5-16s19.5 7.1634 19.5 16z"/>
 <path id="path6707" style="opacity:.13333;stroke:url(#linearGradient6313);stroke-width:.99997;display:block;fill:none" d="m43.5 26.5c0 8.2843-8.7305 15-19.5 15s-19.5-6.7157-19.5-15 8.7305-15 19.5-15 19.5 6.7157 19.5 15z"/>
</svg>
